assets/images/inverted_subjects/Trigonometry.svg

<svg xmlns="http://www.w3.org/2000/svg" viewBox="45.8 134.7 520.6 521" xmlns:v="https://vecta.io/nano"><path fill="#fff" d="M179.8 523.7H481L179.8 222.5v301.2zm66.1-15.4h-53v-54h53v54zm203 2.3h-54c2-14.1 7.5-27.2 15.7-38.3l38.3 38.3zm-256-256.4l38 38.3c-7.2 5.2-15.1 9.5-23.2 12.1-4.9 1.6-9.8 2.9-14.7 3.6v-54zm-.4 60.6c5.6-.7 11.1-2 16.7-3.9 9.5-2.9 18.3-7.9 26.2-13.8L406 467.7c-9.5 12.4-15.4 27.2-17.7 42.9H252.5V451c0-2-1.6-3.3-3.6-3.6h-56.3V314.8z"/></svg>

<?xml version="1.0" encoding="utf-8"?>
<!-- Generator: Adobe Illustrator 18.1.1, SVG Export Plug-In . SVG Version: 6.00 Build 0)  -->
<svg version="1.1" id="trig" xmlns="http://www.w3.org/2000/svg" xmlns:xlink="http://www.w3.org/1999/xlink" x="0px" y="0px"
	 viewBox="45.8 134.7 520.6 521" enable-background="new 45.8 134.7 520.6 521" xml:space="preserve">
<path fill="none" d="M306.5,134.7c-144.1,0-260.6,116.6-260.6,260.6c0,143.7,116.6,260.3,260.3,260.3s260.3-116.6,260.3-260.3
	C566.8,251.3,450.2,134.7,306.5,134.7z"/>
<g>
	<path fill="#FFFFFF" d="M179.8,523.7H481L179.8,222.5V523.7z M245.9,508.3h-53v-54h53V508.3z M448.9,510.6h-54
		c2-14.1,7.5-27.2,15.7-38.3L448.9,510.6z M192.9,254.2l38,38.3c-7.2,5.2-15.1,9.5-23.2,12.1c-4.9,1.6-9.8,2.9-14.7,3.6V254.2z
		 M192.5,314.8c5.6-0.7,11.1-2,16.7-3.9c9.5-2.9,18.3-7.9,26.2-13.8L406,467.7c-9.5,12.4-15.4,27.2-17.7,42.9H252.5V451
		c0-2-1.6-3.3-3.6-3.6h-56.3V314.8z"/>
</g>
</svg>
